public/darklogo.svg

<svg width="26" height="17" viewBox="0 0 26 17" fill="none" xmlns="http://www.w3.org/2000/svg">
<path d="M18.6885 0.374023H19.7871C22.7819 0.374023 24.5723 1.39128 25.1582 3.42578C25.3454 4.08496 25.439 4.84587 25.439 5.7085V17H18.6885V0.374023ZM9.63086 0.374023H16.418V17H9.63086V0.374023ZM0.548828 0.374023H7.33594V17H0.548828V0.374023Z" fill="white"/>
</svg>

<svg xmlns="http://www.w3.org/2000/svg" width="26" height="17" fill="none" viewBox="0 0 26 17"><path fill="#fff" d="M18.689.374h1.098c2.995 0 4.785 1.017 5.371 3.052.187.659.281 1.42.281 2.282V17h-6.75V.374Zm-9.058 0h6.787V17H9.631V.374Zm-9.082 0h6.787V17H.549V.374Z"/></svg>
